X:215
T: Spy Wednesday
S: Treoir
C: Noel Strange
Z: B.Black
M: 4/4
L: 1/8
R: reel
K: G
D | GBAG FD D2 | GABd c2 BA | GB B2 GB B2 | ABAG FDDE |
GBAG FD D2 | GABd c2 BA | dB B2 gB B2 | ecAF G3 :|
e | gfge dB B2 | dBAB dB B2 | gfge dB B2 | ecAG FA D2 |
gfge dB B2 | dBAB dB B2 | GABd cdeg | ecAF G3 :|
